icons/bug-16.svg

<svg width="16" height="16" viewBox="0 0 16 16" fill="none" xmlns="http://www.w3.org/2000/svg">
<path fill-rule="evenodd" clip-rule="evenodd" d="M11.0001 10H14.0001V9H11.0001V8L14.1701 6.97L13.8301 6.03L11.0001 7V6C11.0001 5.45 10.5501 5 10.0001 5V4C10.0001 3.52 9.64008 3.12 9.17008 3.03L10.2001 2H12.0001V1H9.80008L7.80008 3H7.21008L5.20008 1H3.00008V2H4.80008L5.83008 3.03C5.36008 3.12 5.00008 3.51 5.00008 4V5C4.45008 5 4.00008 5.45 4.00008 6V7L1.17008 6.03L0.830078 6.97L4.00008 8V9H1.00008V10H4.00008V11L0.830078 12.03L1.17008 12.97L4.00008 12V13C4.00008 13.55 4.45008 14 5.00008 14H6.00008L7.00008 13V6H8.00008V13L9.00008 14H10.0001C10.5501 14 11.0001 13.55 11.0001 13V12L13.8301 12.97L14.1701 12.03L11.0001 11V10V10ZM9.00008 5H6.00008V4H9.00008V5V5Z" fill="#1B1F23"/>
</svg>

<svg xmlns="http://www.w3.org/2000/svg" width="16" height="16" viewBox="0 0 16 16"><path fill-rule="evenodd" d="M11 10h3V9h-3V8l3.17-1.03-.34-.94L11 7V6c0-.55-.45-1-1-1V4c0-.48-.36-.88-.83-.97L10.2 2H12V1H9.8l-2 2h-.59L5.2 1H3v1h1.8l1.03 1.03C5.36 3.12 5 3.51 5 4v1c-.55 0-1 .45-1 1v1l-2.83-.97-.34.94L4 8v1H1v1h3v1L.83 12.03l.34.94L4 12v1c0 .55.45 1 1 1h1l1-1V6h1v7l1 1h1c.55 0 1-.45 1-1v-1l2.83.97.34-.94L11 11v-1zM9 5H6V4h3v1z"/></svg>
